-----BEGIN PGP PUBLIC KEY BLOCK-----
Comment: A7EB E918 E193 1F95 AED8  78E1 5FD9 E348 2ABB 74DE
Comment: circular <circular@circulars.dev>

xsFNBGZyQrwBEAChTn5ItCD+WAgOB7QDsn1qo/mQph7dnETh9uERUQNpITE6rB9I
/89TgRgpFRvVR67BMbJUP6xpmUOpccYlVtTA9z7bQMgw9lMyc+h320PYGbpXnaQS
j1Y7dQIt/wYibg00/FMnDPhPCd9GdrXaeqDWJo3Qzv0XlxCyWinrpHxFkcg2hyQj
wbY+VDZLL26PEjZQxpCUFMgPfaMPhPb7P5j11BqB16eunYZwHXBo9/6kH+Kppv0Y
xWdeVTqob5pTxGumPIKWdg0fkn34eAWu/IWbbL0ag2nqrV2UN99ziw/amfywgwBB
JUH8T7m/EXZsc/vWyMRaZr7KJzCrklXMK8DxQeIVTJdRgCBQ2bBbhF8L+/60acER
PIBujhTkBQDMRZH9SinMZ9P1ZbB6mw2dFIU17WC6hdkfGgxj7WBl9QvY/Uwfk03o
aIzMeYN17qogmZbU1oBegebuPVdX+pZpdxPsGp2TAxE1jAwcSNoYIeuL74/3hg+F
YSqWg1vgLrqrX1tagaOpgaHXWZ+AOy5yIPMGcMnvH4CP8NJ52XfKXH9Zt/FO/36C
O+6jwxOYAPqYCR8QHrO6pdmX9qpEj1OIDDsOtoxW2i3tE/nuGqLu6SDk2WL+XqQY
kcKIXbqmfmKbr4bkKaPFU9UjV/4XA+1ep+2EQwV6XRUdW7sAGbQgpYVgLQARAQAB
zSFjaXJjdWxhciA8Y2lyY3VsYXJAY2lyY3VsYXJzLmRldj7CwmQEEwEIAQ4CGwMF
CQeGHywFCwkIBwIGFQoJCAsCBBYCAwECHgECF4AWIQSn6+kY4ZMfla7YeOFf2eNI
Krt03gUCZrA5HjMUgAAAAAAQABpwcm9vZkBhcmlhZG5lLmlkZG5zOmNpcmN1bGFy
cy5kZXY/dHlwZT1UWFQ3FIAAAAAAEAAecHJvb2ZAYXJpYWRuZS5pZGh0dHBzOi8v
d2V0ZHJ5LndvcmxkL0BjaXJjdWxhcmMUgAAAAAAQAEpwcm9vZkBhcmlhZG5lLmlk
aHR0cHM6Ly9naXN0LmdpdGh1Yi5jb20vY2lyY3VsYXJzcHJvamVjdHMvOTRmNzI2
NGMwYTVhZDA1NjQ3OTI3YWM3NTQ2NmUzYzUACgkQX9njSCq7dN5+Og/+OhYF0ero
k2zRmPUynVVWRq1vcTQOU4e1zNVqjblZxie/DUQNbrgumzhMAsNd72iapWBIn65q
eTmGj+yhkNB8zz9pjKccdtYfV2TmXSnC16YOujBzkJatyzjK9fBpcm8jL8tNShLS
0xVuteA6mJCb8pPjTbqhXPlSQiwhsbbuVp/HLk++kZEUwS170mjoEyHBE2lhJY0g
zVSncfE3XGGHU61QcGdEAIfgxu/U6m4GovIPG6+Ekgq5g52E+fi79wZZIIC08d1r
eqbB3y/+/t4v8MDohAlE9ARzsb5d8QDVxhHw2z8KiCDY3ZSzk0Mju/xAp4Qs2Vb0
fBMaYTGQoCt2/gSV9OnFcThh6SycPMy3IRASV95R6YWFdRG7k486JbLIf0eoG08v
gDozBd0xAyz6buuF7YZzFWB380Fln0dOYz3Totj2B4X2ocoYgPmXCT8+Wh28HYZL
e6ZV2WNirqUKVV2IEBwiRU5bfuRIuNXQPf4MEMdYtpiHPqe7xG8hxGA7vWhtm9rA
TXRinrpyiQBuFdLO4D6+PSSaGf0RfTHnDaLDW5LIA7kzshlHLpn9uh8JZJLtudZH
jlICkKRp210usdALnMW+VaiTDnKv1X4ao5bPde+40kgwnTe//72EpmTp01alWlfR
nLvdAGb72LiJ8Mg+iA9Cu4WEZWOGZybC1pzCwZQEEwEIAD4WIQSn6+kY4ZMfla7Y
eOFf2eNIKrt03gUCZnJCvAIbAwUJB4YfLAULCQgHAgYVCgkICwIEFgIDAQIeAQIX
gAAKCRBf2eNIKrt03nz1D/9iMxcqsQUE3anhE3xptlCOx2wizif/bkDJBoZ7oNUA
gNaYiqDHUn5g0ekqhdCPfBd1TcZI+s/Rq3pp2ZGMxAe/LA9xnFtcH80omV2SFv1O
x1AKZ+6ITIYBUHXc+i1xFhQ4JyUgN+SJgiCOIzEdXwETK2tN/yWloaLTdTv/t8BL
cTGPWoDpJ186EWNi9UtKyi+/S7QGqoJttPEFCTwo2FuIReLxMIuzQvnzdHzp02ne
yossPqc8weK47vYdgpv7SdFdVX8dRrO3r3Or68RGi2LkNNYme61pJNw/GcG3r0xo
smzWfaIWTQ7RJa21NGKCRjTYzCo3Ejku5KPjZllglH806ml7kSx6tFkNpRKvIxOq
eZAh5ZyJ4qc1iuGEAt/6ocQrS/ZIhRpaot9TjcpihgjfqBIz31ZsqEwex7zrish4
tYeQcpruFCZEoLVf9JPA2HA20DQKhgVxiO0GXNqfKBWtd6YVoguyepYY1F9BTTeS
veUBojj8qsqIR3vKmyRFQ3ZRsJOkkOVPBMhdak/IOruaJb2B8zntUw/aRL/HVidJ
KvX2BFpusPddVzAMGAafPQxDix8vs1xR0jma1iELLFwUZjfNc3u4KRD9TE6TaW7d
i96WFV/qXpteZ6w+7DceX/1poYPma5S+O7A0GuRcyxJqrdlK+8lN+ez6cYhBQaJ+
0c7BTQRmckK8ARAAxzE6F7nQGlMrQ1U09gcArCYMI0nOxjnW4UfQY9e8FGQ+5e8s
iDrOOJghBX1lN+ZJ1342ZGliBroptqz2nHTVQmVah3zhWJgUcusiYXh0XDsbcspP
f0Y/uYBfbDeSHA5uB9vI9YK1/8rCg1rxnLleBqX9D4DvEL+OUrop89RBHBGV+/Zc
9g8pgL2l8gXvqy8DNxHj3FdGZZpKKGSbpgnh213lnS/WL7hD3E9JZ7pLchYqkoYj
MctlJZy1GnMYWBe1T4p9n8W25wkth3lwTGiLOY6L7B6jyn7NlClM0E1BwU2xvq4P
qCsShJH7WjgtMmii7AEckpbrQJ91aasMjeS79p0lKTEPE1/XVPXntCgT7GWW+1EH
gkjiFFHaCV+70czTTeGQ0Ibel7XQfJMZ1AjPJR1fTX0V0mB/bL218KArJ/VO0JUB
8qIEXfqCpIzcDfH/xGa+8QVC537iLxDbh6/99KzZXjCRFdefL3fubWHpCo7TZEfO
LPwMW+n3P42JvagRB9TCrjlBlohPxlurvyQ3JwiHZq7BlDyv6gLqnBID7zYwlXRT
g1Psg17K2Rxt02DU9ZSH3bVhvYAQ10VuXmisBR5NWmaoho0R5Y7qsNy+10VBmckJ
GwLXKKqQUKVTYvN2qI6BMyUwiEJF+PJQn80BjPklGgF0jUvkioSPNgFoVZUAEQEA
AcLBfAQYAQgAJhYhBKfr6Rjhkx+Vrth44V/Z40gqu3TeBQJmckK8AhsMBQkHhh8s
AAoJEF/Z40gqu3TexLcP/j2ZqlrEocvDemTraUtbgDa8o5u//Dl8w7xWHRwBkvrz
Yj2YytYl5Pyem+6rCh1/yMPOVGw3jT3heg+UlGjPLSLKv+FfjSSSAMHOMS430Dpk
tNn+3SUE5vPYLzeDPXEXKKjtSOt2vUrr9mvGEx+GvKK1ZvfJbM14Q88qPBsS51o3
PUEsHdzq9/9T6TBf6OpY4Qtu4ugkYW8vkmVFvExaPj6fKYoPUz68lFuBlBAJa/aH
XEuNfNvpYIAXXwGVWRPOaNL6UX2gVsl3wQLGmdu54rNuKLsHbxHuOQ+6t1iXKNGR
foinH6HPC+6ep4G60x16ffIW6PAf7PNRbwbLddDU5Qkkxg/yhsZv6wYCKCyAB+ev
T6LD9gHAuryzi1qbIsQmNOp7QfB0AwVBGED4tllLt3Wu547ZniP5jkjDgPkr89eR
NI6E26Q+t69hV36SS3ZKFdRinyMwokMJnnhRVPjg93XaaMstS11S/pSW+nmyOOsl
5SlN+WvojHhbUTIKLTOMy9J5aM+YerxXC+miV/4I8k0lRXuPGaV/O7emsgSbcJf2
YdauPxinky93o9lLq5CHAw+BW7+y0ssR+QNbRHnUDAKgsxmdasMvjffCmnyEqbFr
DCLFkKXcFMxtM2QzQ5viJ09MJPDYt8/Uvyo8+y9s+KnXDUYQ2H/uB8FaGWVHFDFO
=ZcUE
-----END PGP PUBLIC KEY BLOCK-----
